src/public/favicon.svg

<svg width="32" height="32" viewBox="0 0 32 32" fill="none" xmlns="http://www.w3.org/2000/svg">
    <g clip-path="url(#clip0_4602_59280)">
        <circle cx="16.0002" cy="16" r="16" fill="#4640DE" />
        <mask id="path-2-inside-1_4602_59280" fill="white">
            <path
                d="M16.0002 27C18.6655 27 21.3307 24.8953 23.061 23.179C23.4601 22.7831 22.9795 22.2122 22.4824 22.4749C20.6016 23.469 18.0183 24.6 16.0002 24.6C13.9822 24.6 11.3989 23.469 9.51804 22.4749C9.021 22.2122 8.54037 22.7831 8.93951 23.179C10.6698 24.8953 13.335 27 16.0002 27Z" />
        </mask>
        <path
            d="M23.061 23.179L25.1737 25.3089V25.3089L23.061 23.179ZM8.93951 23.179L6.82682 25.3089H6.82682L8.93951 23.179ZM9.51804 22.4749L10.9199 19.8226L10.9199 19.8226L9.51804 22.4749ZM22.4824 22.4749L21.0806 19.8226L21.0806 19.8226L22.4824 22.4749ZM20.9483 21.0491C20.1785 21.8126 19.2654 22.5953 18.3203 23.1712C17.3494 23.7627 16.5674 24 16.0002 24V30C18.0983 30 19.9815 29.1849 21.4421 28.2951C22.9285 27.3895 24.2132 26.2616 25.1737 25.3089L20.9483 21.0491ZM16.0002 24C15.4331 24 14.6511 23.7627 13.6802 23.1712C12.7351 22.5953 11.822 21.8126 11.0522 21.0491L6.82682 25.3089C7.78733 26.2616 9.07201 27.3895 10.5584 28.2951C12.0189 29.1849 13.9022 30 16.0002 30V24ZM8.11617 25.1272C9.13164 25.6639 10.3829 26.2629 11.6936 26.7336C12.9672 27.1911 14.4923 27.6 16.0002 27.6V21.6C15.4901 21.6 14.7146 21.4434 13.7218 21.0868C12.7661 20.7436 11.7853 20.28 10.9199 19.8226L8.11617 25.1272ZM16.0002 27.6C17.5082 27.6 19.0333 27.1911 20.3069 26.7336C21.6175 26.2629 22.8688 25.6639 23.8843 25.1272L21.0806 19.8226C20.2152 20.28 19.2344 20.7436 18.2787 21.0868C17.2859 21.4434 16.5104 21.6 16.0002 21.6V27.6ZM25.1737 25.3089C25.7677 24.7197 26.1778 23.8995 26.2074 22.9593C26.2358 22.0551 25.9052 21.2526 25.4154 20.663C24.4116 19.4547 22.6324 19.0024 21.0806 19.8226L23.8843 25.1272C22.8296 25.6847 21.5391 25.3865 20.8001 24.4969C20.4427 24.0667 20.1885 23.4648 20.2103 22.7708C20.2333 22.0407 20.5539 21.4403 20.9483 21.0491L25.1737 25.3089ZM11.0522 21.0491C11.4466 21.4403 11.7672 22.0407 11.7901 22.7708C11.812 23.4648 11.5577 24.0667 11.2003 24.4969C10.4614 25.3865 9.17093 25.6847 8.11617 25.1272L10.9199 19.8226C9.36812 19.0024 7.58885 19.4547 6.58508 20.663C6.09528 21.2526 5.76468 22.0551 5.7931 22.9593C5.82266 23.8995 6.23283 24.7197 6.82682 25.3089L11.0522 21.0491Z"
            fill="white" mask="url(#path-2-inside-1_4602_59280)" />
        <path
            d="M21.7125 9.31575C21.3926 8.99365 21.3926 8.47732 21.7125 8.15521L23.4309 6.02632L23.4309 5.98937C23.8663 5.55866 24.5721 5.55866 25.0074 5.98937C25.4427 6.42007 25.4427 7.11837 25.0074 7.54907L22.9826 9.31575L22.907 9.38279C22.7489 9.50768 22.5518 9.57665 22.3475 9.57665C22.1092 9.57665 21.8807 9.48277 21.7125 9.31575ZM8.66724 15.185C8.66724 13.2892 9.42843 11.4711 10.7834 10.1306C12.1383 8.79004 13.976 8.03694 15.8922 8.03694C19.8824 8.03694 23.1171 11.2372 23.1171 15.185C23.1171 19.1327 19.8824 22.333 15.8922 22.333C11.902 22.333 8.66724 19.1327 8.66724 15.185Z"
            fill="white" />
    </g>
    <defs>
        <clipPath id="clip0_4602_59280">
            <rect width="32" height="32" fill="white" />
        </clipPath>
    </defs>
</svg>

<symbol id="favicon" viewBox="0 0 32 32">
    <path fill="#4640de" style="fill: var(--color1, #4640de)"
        d="M32 16c0 8.837-7.163 16-16 16s-16-7.163-16-16c0-8.837 7.163-16 16-16s16 7.163 16 16z"></path>
    <path fill="#fff" style="fill: var(--color2, #fff)"
        d="M23.061 23.179v0zM8.94 23.179v0zM9.518 22.475v0zM22.482 22.475v0zM20.948 21.049c-0.77 0.764-1.683 1.546-2.628 2.122-0.971 0.591-1.753 0.829-2.32 0.829v6c2.098 0 3.981-0.815 5.442-1.705 1.486-0.906 2.771-2.034 3.732-2.986l-4.225-4.26zM16 24c-0.567 0-1.349-0.237-2.32-0.829-0.945-0.576-1.858-1.359-2.628-2.122l-4.225 4.26c0.96 0.953 2.245 2.081 3.732 2.986 1.46 0.89 3.344 1.705 5.442 1.705v-6zM8.116 25.127c1.015 0.537 2.267 1.136 3.577 1.606 1.274 0.457 2.799 0.866 4.307 0.866v-6c-0.51 0-1.286-0.157-2.278-0.513-0.956-0.343-1.937-0.807-2.802-1.264l-2.804 5.305zM16 27.6c1.508 0 3.033-0.409 4.307-0.866 1.311-0.471 2.562-1.070 3.577-1.606l-2.804-5.305c-0.865 0.457-1.846 0.921-2.802 1.264-0.993 0.357-1.768 0.513-2.279 0.513v6zM25.174 25.309c0.594-0.589 1.004-1.409 1.034-2.35 0.028-0.904-0.302-1.707-0.792-2.296-1.004-1.208-2.783-1.661-4.335-0.84l2.804 5.305c-1.055 0.558-2.345 0.259-3.084-0.63-0.357-0.43-0.612-1.032-0.59-1.726 0.023-0.73 0.344-1.331 0.738-1.722l4.225 4.26zM11.052 21.049c0.394 0.391 0.715 0.992 0.738 1.722 0.022 0.694-0.232 1.296-0.59 1.726-0.739 0.89-2.029 1.188-3.084 0.63l2.804-5.305c-1.552-0.82-3.331-0.368-4.335 0.84-0.49 0.59-0.82 1.392-0.792 2.296 0.030 0.94 0.44 1.76 1.034 2.35l4.225-4.26z">
    </path>
    <path fill="#fff" style="fill: var(--color2, #fff)"
        d="M21.712 9.316c-0.32-0.322-0.32-0.838 0-1.161l1.718-2.129v-0.037c0.435-0.431 1.141-0.431 1.576 0s0.435 1.129 0 1.56l-2.1 1.834c-0.158 0.125-0.355 0.194-0.559 0.194-0.238 0-0.467-0.094-0.635-0.261zM8.667 15.185c0-1.896 0.761-3.714 2.116-5.054s3.193-2.094 5.109-2.094c3.99 0 7.225 3.2 7.225 7.148s-3.235 7.148-7.225 7.148-7.225-3.2-7.225-7.148z">
    </path>
</symbol>
